Assets/Assets/Import/Lut/GIXS.cube
#Generated with IWLTBAP LUT Generator 2.1.9571.30596
#Website: https://luts.iwltbap.com
TITLE "GIXS"
LUT_3D_SIZE 33
0.000000 0.000000 0.000000
0.019240 0.000000 0.000000
0.046078 0.000000 0.000000
0.073407 0.000000 0.000000
0.096078 0.000000 0.000000
0.123039 0.003309 0.000000
0.150000 0.003922 0.000000
0.177819 0.007843 0.000000
0.203922 0.003922 0.000000
0.233701 0.007843 0.000000
0.261765 0.007843 0.000000
0.291299 0.007843 0.000000
0.321078 0.007843 0.000000
0.352819 0.007843 0.000000
0.385294 0.007843 0.000000
0.416176 0.005760 0.000000
0.450980 0.001961 0.000000
0.487623 0.000000 0.000000
0.520588 0.000000 0.000000
0.553064 0.000000 0.000000
0.587745 0.000000 0.000000
0.622426 0.000000 0.000000
0.661029 0.000000 0.000000
0.695711 0.000000 0.000000
0.729412 0.000000 0.000000
0.765074 0.000000 0.000000
0.799755 0.000000 0.000000
0.838358 0.000000 0.000000
0.873039 0.000000 0.000000
0.911642 0.000000 0.000000
0.946078 0.000000 0.000000
0.976961 0.000000 0.000000
1.000000 0.000000 0.000000
0.000000 0.023162 0.000000
0.022924 0.023043 0.000000
0.046078 0.023162 0.000000
0.069841 0.023518 0.000000
0.096094 0.023162 0.000000
0.123058 0.026490 0.000000
0.150735 0.027083 0.000000
0.180760 0.030882 0.000000
0.204963 0.027175 0.000000
0.234804 0.031093 0.000000
0.262952 0.031089 0.000000
0.295182 0.031047 0.000000
0.323529 0.031005 0.000000
0.354412 0.031005 0.000000
0.386956 0.030936 0.000000
0.420098 0.028922 0.000000
0.452880 0.025123 0.000000
0.487623 0.024943 0.000000
0.520588 0.021446 0.000000
0.555392 0.015391 0.000000
0.591621 0.013771 0.000000
0.625000 0.006292 0.000000
0.663557 0.002612 0.000000
0.698441 0.000000 0.000000
0.730392 0.000000 0.000000
0.765169 0.000000 0.000000
0.802941 0.000000 0.000000
0.841667 0.000000 0.000000
0.876471 0.000000 0.000000
0.911631 0.000000 0.000000
0.946078 0.000000 0.000000
0.976957 0.000000 0.000000
1.000000 0.000000 0.000000
0.000000 0.050000 0.000000
0.022809 0.050008 0.000000
0.046078 0.050000 0.000000
0.069485 0.050023 0.000000
0.096109 0.050245 0.000000
0.123078 0.053347 0.000000
0.150781 0.050245 0.000000
0.181687 0.053922 0.000000
0.207843 0.054105 0.000000
0.238725 0.057054 0.000000
0.265686 0.054335 0.000000
0.296569 0.056824 0.000000
0.324908 0.055545 0.000000
0.358188 0.057943 0.000000
0.389078 0.055775 0.000000
0.420098 0.054167 0.000000
0.454779 0.052083 0.000000
0.491544 0.051968 0.000000
0.524510 0.048392 0.000000
0.556985 0.046078 0.000000
0.591575 0.042065 0.000000
0.626425 0.036887 0.000000
0.663557 0.032920 0.000000
0.698353 0.024089 0.000000
0.730392 0.013787 0.000000
0.768137 0.006549 0.000000
0.802941 0.000000 0.000000
0.842279 0.000000 0.000000
0.876501 0.000000 0.000000
0.911619 0.000000 0.000000
0.946308 0.000000 0.000000
0.977076 0.000000 0.000000
1.000000 0.000000 0.000000
0.000000 0.080882 0.000000
0.019240 0.080526 0.000000
0.045512 0.080660 0.000000
0.069485 0.080882 0.000000
0.096124 0.077328 0.000000
0.123097 0.080384 0.000000
0.153991 0.080951 0.000000
0.184436 0.080882 0.000000
0.209007 0.081158 0.000000
0.238829 0.083804 0.000000
0.267050 0.081250 0.000000
0.296695 0.083582 0.000000
0.327451 0.082583 0.000000
0.358333 0.083360 0.000000
0.389216 0.082598 0.000000
0.424020 0.082916 0.000000
0.456495 0.080882 0.000000
0.491544 0.081055 0.000000
0.524510 0.079167 0.000000
0.557204 0.076961 0.000000
0.595221 0.074372 0.000000
0.626589 0.071691 0.000000
0.664583 0.068750 0.000000
0.698265 0.063461 0.000000
0.733150 0.055729 0.000000
0.768915 0.047917 0.000000
0.803906 0.039461 0.000000
0.842279 0.024632 0.000000
0.877282 0.013327 0.000000
0.915529 0.003221 0.000000
0.949655 0.000000 0.000000
0.980871 0.000000 0.000000
1.000000 0.000000 0.000000
0.000000 0.104902 0.000000
0.015334 0.107751 0.000000
0.038940 0.105086 0.000000
0.065732 0.104458 0.000000
0.093137 0.104902 0.000000
0.119684 0.107797 0.000000
0.150582 0.107935 0.000000
0.177451 0.108333 0.000000
0.204902 0.108333 0.000000
0.233318 0.108824 0.000000
0.262745 0.108333 0.000000
0.293627 0.108502 0.000000
0.324020 0.110478 0.000000
0.355101 0.108333 0.000000
0.387500 0.109835 0.000000
0.418980 0.108563 0.000000
0.453431 0.108088 0.000000
0.490426 0.108333 0.000000
0.523070 0.108119 0.000000
0.557767 0.105806 0.000000
0.590686 0.106373 0.000000
0.626991 0.104075 0.000000
0.663879 0.102359 0.000000
0.698667 0.098545 0.000000
0.733456 0.094730 0.000000
0.768627 0.088021 0.000000
0.803431 0.083088 0.000000
0.845665 0.077773 0.000000
0.877451 0.067096 0.000000
0.912577 0.055744 0.000000
0.947059 0.046354 0.000000
0.981265 0.030561 0.000000
1.000000 0.010294 0.000000
0.000000 0.138725 0.000000
0.008192 0.138028 0.000000
0.031250 0.134804 0.000000
0.061887 0.135359 0.000000
0.092570 0.135218 0.000000
0.119118 0.134804 0.000000
0.149502 0.134804 0.000000
0.176961 0.138113 0.000000
0.207384 0.138266 0.000000
0.234804 0.136347 0.000000
0.265265 0.138725 0.000000
0.295956 0.138323 0.000000
0.327221 0.137485 0.000000
0.358333 0.136761 0.000000
0.390663 0.136864 0.000000
0.421856 0.138725 0.000000
0.454902 0.138725 0.000000
0.489706 0.138725 0.000000
0.525613 0.138381 0.000000
0.556985 0.136148 0.000000
0.593735 0.136872 0.000000
0.627888 0.134804 0.000000
0.663725 0.133578 0.000000
0.701838 0.133088 0.000000
0.734314 0.126961 0.000000
0.768995 0.122905 0.000000
0.803562 0.121691 0.000000
0.845071 0.117375 0.000000
0.877497 0.110172 0.000000
0.911642 0.102761 0.000000
0.949180 0.097220 0.000000
0.980882 0.089583 0.000000
1.000000 0.074142 0.000000
0.000000 0.173529 0.000000
0.000000 0.172718 0.000000
0.020098 0.169853 0.000000
0.054534 0.173529 0.000000
0.088971 0.173529 0.000000
0.119233 0.173529 0.000000
0.150597 0.172794 0.000000
0.177658 0.172794 0.000000
0.207292 0.172181 0.000000
0.235539 0.173529 0.000000
0.265686 0.173024 0.000000
0.296569 0.173047 0.000000
0.329442 0.172059 0.000000
0.359628 0.171638 0.000000
0.391023 0.171737 0.000000
0.423675 0.173529 0.000000
0.456863 0.173529 0.000000
0.493627 0.173529 0.000000
0.525904 0.174923 0.000000
0.560608 0.173529 0.000000
0.593658 0.173529 0.000000
0.630017 0.173529 0.000000
0.667142 0.172794 0.000000
0.702451 0.171691 0.000000
0.736887 0.167525 0.000000
0.771484 0.161765 0.000000
0.806863 0.160294 0.000000
0.845466 0.156610 0.000000
0.880392 0.153431 0.000000
0.915564 0.149265 0.000000
0.949311 0.144409 0.000000
0.983969 0.137377 0.000000
1.000000 0.129657 0.000000
0.000000 0.208333 0.000000
0.000000 0.207502 0.000000
0.002413 0.204603 0.000000
0.042727 0.208253 0.000000
0.083931 0.207583 0.000000
0.118639 0.208333 0.000000
0.153064 0.207475 0.000000
0.180212 0.204224 0.000000
0.207200 0.203768 0.000000
0.235662 0.204412 0.000000
0.267793 0.204412 0.000000
0.297622 0.204412 0.000000
0.329902 0.204412 0.000000
0.362255 0.204412 0.000000
0.393137 0.202688 0.000000
0.425647 0.204010 0.000000
0.458824 0.204412 0.000000
0.495255 0.204412 0.000000
0.529289 0.205752 0.000000
0.560907 0.204412 0.000000
0.597503 0.206327 0.000000
0.630833 0.206028 0.000000
0.667647 0.206518 0.000000
0.702451 0.204412 0.000000
0.736826 0.203002 0.000000
0.771389 0.199632 0.000000
0.806863 0.198039 0.000000
0.848786 0.191311 0.000000
0.881633 0.188235 0.000000
0.915851 0.184723 0.000000
0.952872 0.179833 0.000000
0.984804 0.176007 0.000000
1.000000 0.169118 0.000000
0.000000 0.234314 0.000000
0.000000 0.236213 0.000000
0.000000 0.233578 0.000000
0.024265 0.236887 0.000000
0.070098 0.237255 0.000000
0.108854 0.237255 0.000000
0.146507 0.236275 0.000000
0.175643 0.233211 0.000000
0.205882 0.233333 0.000000
0.233670 0.232353 0.000000
0.262745 0.232353 0.000000
0.295558 0.234283 0.000000
0.328064 0.235907 0.000000
0.359314 0.235294 0.000000
0.392402 0.234007 0.000000
0.424540 0.232353 0.000000
0.459804 0.233824 0.000000
0.494608 0.235294 0.000000
0.530147 0.235294 0.000000
0.563235 0.235294 0.000000
0.598039 0.235294 0.000000
0.633824 0.235938 0.000000
0.667953 0.235294 0.000000
0.703431 0.238113 0.000000
0.737500 0.235294 0.000000
0.772917 0.234314 0.000000
0.807843 0.231373 0.000000
0.849203 0.229779 0.000000
0.882353 0.225980 0.000000
0.916544 0.219608 0.000000
0.950980 0.215441 0.000000
0.982904 0.211765 0.000000
1.000000 0.204902 0.000000
0.000000 0.272917 0.000000
0.000000 0.268995 0.000000
0.000000 0.266353 0.000000
0.002999 0.268731 0.000000
0.053324 0.268995 0.000000
0.099560 0.272476 0.000000
0.144815 0.272388 0.000000
0.176961 0.268995 0.000000
0.207843 0.269271 0.000000
0.235907 0.266969 0.000000
0.265342 0.265832 0.000000
0.294876 0.265453 0.000000
0.327037 0.268995 0.000000
0.361152 0.268995 0.000000
0.394723 0.268244 0.000000
0.426034 0.266176 0.000000
0.462194 0.267586 0.000000
0.497032 0.266176 0.000000
0.531250 0.267410 0.000000
0.564380 0.266176 0.000000
0.599510 0.268352 0.000000
0.634693 0.268026 0.000000
0.668528 0.268873 0.000000
0.705580 0.268513 0.000000
0.741176 0.267004 0.000000
0.775980 0.265935 0.000000
0.808494 0.263151 0.000000
0.848579 0.264633 0.000000
0.883349 0.260800 0.000000
0.919118 0.258127 0.000000
0.951210 0.253064 0.000000
0.984804 0.245466 0.000000
1.000000 0.241544 0.000000
0.000000 0.314216 0.000000
0.000000 0.307598 0.000000
0.000000 0.303922 0.000000
0.000000 0.307230 0.000000
0.025184 0.307598 0.000000
0.084628 0.311098 0.000000
0.137990 0.311014 0.000000
0.173407 0.308188 0.000000
0.210172 0.308578 0.000000
0.239828 0.304779 0.000000
0.269225 0.303294 0.000000
0.297534 0.300176 0.000000
0.328462 0.300521 0.000000
0.361029 0.300483 0.000000
0.394654 0.302497 0.000000
0.426677 0.300980 0.000000
0.462745 0.301716 0.000000
0.498813 0.300406 0.000000
0.533532 0.300444 0.000000
0.567157 0.300980 0.000000
0.602420 0.300980 0.000000
0.635960 0.300559 0.000000
0.671569 0.300597 0.000000
0.708655 0.300980 0.000000
0.741850 0.300674 0.000000
0.776570 0.300712 0.000000
0.811014 0.297059 0.000000
0.851785 0.295412 0.000000
0.884467 0.293137 0.000000
0.919370 0.293022 0.000000
0.953922 0.289139 0.000000
0.984804 0.285256 0.000000
1.000000 0.280147 0.000000
0.000000 0.352696 0.000000
0.000000 0.346243 0.000000
0.000000 0.342525 0.000000
0.000000 0.345833 0.000000
0.001180 0.348453 0.000000
0.062220 0.349720 0.000000
0.126961 0.349640 0.000000
0.168750 0.347817 0.000000
0.207200 0.347181 0.000000
0.242647 0.345075 0.000000
0.273108 0.342279 0.000000
0.303527 0.337473 0.000000
0.331832 0.334436 0.000000
0.360907 0.334436 0.000000
0.394585 0.334658 0.000000
0.427941 0.335068 0.000000
0.464032 0.336397 0.000000
0.501471 0.335152 0.000000
0.537400 0.335195 0.000000
0.571078 0.333391 0.000000
0.605040 0.333977 0.000000
0.639338 0.333552 0.000000
0.675069 0.332790 0.000000
0.709325 0.333712 0.000000
0.745098 0.332874 0.000000
0.779902 0.331568 0.000000
0.812615 0.329289 0.000000
0.852294 0.330113 0.000000
0.887056 0.326762 0.000000
0.923039 0.327574 0.000000
0.957759 0.323775 0.000000
0.988603 0.318750 0.000000
1.000000 0.316176 0.000000
0.000000 0.385294 0.000000
0.000000 0.383824 0.000000
0.000000 0.382353 0.000000
0.000000 0.382353 0.000000
0.000000 0.384804 0.000000
0.029596 0.386275 0.000000
0.111060 0.386275 0.000000
0.159115 0.386275 0.000000
0.204412 0.388725 0.000000
0.241958 0.384804 0.000000
0.276991 0.381648 0.000000
0.307368 0.376501 0.000000
0.335294 0.373039 0.000000
0.363251 0.367662 0.000000
0.394853 0.366667 0.000000
0.426792 0.367356 0.000000
0.463480 0.369853 0.000000
0.500169 0.368597 0.000000
0.534896 0.368566 0.000000
0.571216 0.368536 0.000000
0.606434 0.366667 0.000000
0.640686 0.365824 0.000000
0.677267 0.366207 0.000000
0.711397 0.366667 0.000000
0.746569 0.366054 0.000000
0.781051 0.363894 0.000000
0.816636 0.364400 0.000000
0.855285 0.362745 0.000000
0.886275 0.359007 0.000000
0.924372 0.358686 0.000000
0.955545 0.354902 0.000000
0.990977 0.353355 0.000000
1.000000 0.350980 0.000000
0.000000 0.427328 0.000000
0.000000 0.421936 0.000000
0.000000 0.419386 0.000000
0.000000 0.419485 0.000000
0.000000 0.421814 0.000000
0.001344 0.423158 0.000000
0.088220 0.426892 0.000000
0.148303 0.427328 0.000000
0.198039 0.425735 0.000000
0.239296 0.425735 0.000000
0.277451 0.424134 0.000000
0.311209 0.418440 0.000000
0.341544 0.413971 0.000000
0.371044 0.409314 0.000000
0.399096 0.403508 0.000000
0.427941 0.400724 0.000000
0.465074 0.402635 0.000000
0.500479 0.402562 0.000000
0.537990 0.403186 0.000000
0.572024 0.403799 0.000000
0.607353 0.402926 0.000000
0.643562 0.402451 0.000000
0.680139 0.400973 0.000000
0.714871 0.399349 0.000000
0.747825 0.397549 0.000000
0.780760 0.397201 0.000000
0.817034 0.395956 0.000000
0.856009 0.395956 0.000000
0.889920 0.393428 0.000000
0.923407 0.393409 0.000000
0.956495 0.388113 0.000000
0.990859 0.388040 0.000000
1.000000 0.383456 0.000000
0.000000 0.469853 0.000000
0.000000 0.464338 0.000000
0.000000 0.460294 0.000000
0.000000 0.461803 0.000000
0.000000 0.464216 0.000000
0.000000 0.465663 0.000000
0.058808 0.467724 0.000000
0.135164 0.469478 0.000000
0.189645 0.469792 0.000000
0.236520 0.468137 0.000000
0.277941 0.466621 0.000000
0.313703 0.462232 0.000000
0.348438 0.457016 0.000000
0.378837 0.451838 0.000000
0.406832 0.445083 0.000000
0.434069 0.439514 0.000000
0.466912 0.438480 0.000000
0.501593 0.437309 0.000000
0.537990 0.437990 0.000000
0.573568 0.438480 0.000000
0.608732 0.438480 0.000000
0.645198 0.437722 0.000000
0.683333 0.437791 0.000000
0.717172 0.435792 0.000000
0.750000 0.432353 0.000000
0.784306 0.428914 0.000000
0.819041 0.430637 0.000000
0.857698 0.428431 0.000000
0.892157 0.426011 0.000000
0.927122 0.424510 0.000000
0.958088 0.422656 0.000000
0.994539 0.422725 0.000000
1.000000 0.416667 0.000000
0.000000 0.514461 0.000000
0.000000 0.506740 0.000000
0.000000 0.504550 0.000000
0.000000 0.504534 0.000000
0.000000 0.506618 0.000000
0.000000 0.508169 0.000000
0.020014 0.510149 0.000000
0.114583 0.511975 0.000000
0.178309 0.510539 0.000000
0.228676 0.510539 0.000000
0.275574 0.509107 0.000000
0.315460 0.507250 0.000000
0.351593 0.500245 0.000000
0.385784 0.495600 0.000000
0.415740 0.488725 0.000000
0.443742 0.481981 0.000000
0.474632 0.476164 0.000000
0.504530 0.472300 0.000000
0.537990 0.472794 0.000000
0.574755 0.473162 0.000000
0.610585 0.473162 0.000000
0.647323 0.472446 0.000000
0.683333 0.473162 0.000000
0.718723 0.470561 0.000000
0.752941 0.467157 0.000000
0.787745 0.464863 0.000000
0.821446 0.463090 0.000000
0.860049 0.461397 0.000000
0.894256 0.460922 0.000000
0.930882 0.459314 0.000000
0.961765 0.455392 0.000000
0.994420 0.453546 0.000000
1.000000 0.451471 0.000000
0.000000 0.556863 0.000000
0.000000 0.553002 0.000000
0.000000 0.552819 0.000000
0.000000 0.553125 0.000000
0.000000 0.552941 0.000000
0.000000 0.554596 0.000000
0.000000 0.554902 0.000000
0.085172 0.558395 0.000000
0.163235 0.556373 0.000000
0.221691 0.556863 0.000000
0.271814 0.557475 0.000000
0.314154 0.552328 0.000000
0.354167 0.548529 0.000000
0.390870 0.543934 0.000000
0.424510 0.537010 0.000000
0.454350 0.531250 0.000000
0.483333 0.521569 0.000000
0.513235 0.513848 0.000000
0.542157 0.510907 0.000000
0.575000 0.508640 0.000000
0.611275 0.510539 0.000000
0.647243 0.510478 0.000000
0.682598 0.511765 0.000000
0.718689 0.507843 0.000000
0.753431 0.505392 0.000000
0.788174 0.504596 0.000000
0.822917 0.501593 0.000000
0.861581 0.497733 0.000000
0.898039 0.495833 0.000000
0.929105 0.494118 0.000000
0.963725 0.490196 0.000000
0.994301 0.488235 0.000000
1.000000 0.488235 0.000000
0.000000 0.603186 0.000000
0.000000 0.597549 0.000000
0.000000 0.593620 0.000000
0.000000 0.597426 0.000000
0.000000 0.597166 0.000000
0.000000 0.600735 0.000000
0.000000 0.600957 0.000000
0.046530 0.601750 0.000000
0.143444 0.602727 0.000000
0.208946 0.603186 0.000000
0.264093 0.603186 0.000000
0.311642 0.601348 0.000000
0.354213 0.596814 0.000000
0.393972 0.592268 0.000000
0.429465 0.586206 0.000000
0.463120 0.579542 0.000000
0.492953 0.568811 0.000000
0.524755 0.561156 0.000000
0.550911 0.552436 0.000000
0.579913 0.548775 0.000000
0.611642 0.546446 0.000000
0.645956 0.546446 0.000000
0.681250 0.546446 0.000000
0.717743 0.546446 0.000000
0.753462 0.544608 0.000000
0.787745 0.542122 0.000000
0.823284 0.538603 0.000000
0.863358 0.536152 0.000000
0.898177 0.534191 0.000000
0.931055 0.528726 0.000000
0.965686 0.526723 0.000000
0.996201 0.524935 0.000000
1.000000 0.525000 0.000000
0.000000 0.641667 0.000000
0.000000 0.638289 0.000000
0.000000 0.636029 0.000000
0.000000 0.636190 0.000000
0.000000 0.636029 0.000000
0.000000 0.639683 0.000000
0.000000 0.639951 0.000000
0.006893 0.643873 0.000000
0.123407 0.643444 0.000000
0.196821 0.643252 0.000000
0.256373 0.643183 0.000000
0.307253 0.640709 0.000000
0.351716 0.637500 0.000000
0.393949 0.634720 0.000000
0.432567 0.630867 0.000000
0.469133 0.622986 0.000000
0.501716 0.613358 0.000000
0.533525 0.604534 0.000000
0.562485 0.597779 0.000000
0.589499 0.589093 0.000000
0.618536 0.584222 0.000000
0.649119 0.581127 0.000000
0.682353 0.581127 0.000000
0.717655 0.581127 0.000000
0.753493 0.579412 0.000000
0.789568 0.576831 0.000000
0.823284 0.575490 0.000000
0.863480 0.572672 0.000000
0.898070 0.569363 0.000000
0.931043 0.563519 0.000000
0.965686 0.561412 0.000000
0.996201 0.557544 0.000000
1.000000 0.555882 0.000000
0.000000 0.682475 0.000000
0.000000 0.677011 0.000000
0.000000 0.674632 0.000000
0.000000 0.676892 0.000000
0.000000 0.676225 0.000000
0.000000 0.680270 0.000000
0.000000 0.678554 0.000000
0.000000 0.682475 0.000000
0.093995 0.682077 0.000000
0.181863 0.681821 0.000000
0.246331 0.681748 0.000000
0.299575 0.680882 0.000000
0.347044 0.678554 0.000000
0.391387 0.675578 0.000000
0.433862 0.671729 0.000000
0.471224 0.666690 0.000000
0.507475 0.657782 0.000000
0.542279 0.650858 0.000000
0.571155 0.641131 0.000000
0.599177 0.634471 0.000000
0.626210 0.625827 0.000000
0.654044 0.618930 0.000000
0.684926 0.615081 0.000000
0.719240 0.612542 0.000000
0.753523 0.614216 0.000000
0.788254 0.611539 0.000000
0.823284 0.610294 0.000000
0.863603 0.609681 0.000000
0.897963 0.604044 0.000000
0.930882 0.602233 0.000000
0.965686 0.598284 0.000000
0.996201 0.592230 0.000000
1.000000 0.590686 0.000000
0.000000 0.718627 0.000000
0.000000 0.717203 0.000000
0.000000 0.714706 0.000000
0.000000 0.716927 0.000000
0.000000 0.714890 0.000000
0.000000 0.717157 0.000000
0.000000 0.717157 0.000000
0.000000 0.717157 0.000000
0.060294 0.717157 0.000000
0.163848 0.717862 0.000000
0.233548 0.718842 0.000000
0.289583 0.718137 0.000000
0.341728 0.716238 0.000000
0.386642 0.713358 0.000000
0.430545 0.709559 0.000000
0.471691 0.707062 0.000000
0.509069 0.699510 0.000000
0.547748 0.691008 0.000000
0.577941 0.684498 0.000000
0.607828 0.677803 0.000000
0.635784 0.667157 0.000000
0.662868 0.659436 0.000000
0.688266 0.651716 0.000000
0.718827 0.646844 0.000000
0.752083 0.647549 0.000000
0.787132 0.645098 0.000000
0.821814 0.645098 0.000000
0.863725 0.643244 0.000000
0.896385 0.638725 0.000000
0.930882 0.637025 0.000000
0.965686 0.633088 0.000000
0.996201 0.626961 0.000000
1.000000 0.625490 0.000000
0.000000 0.753186 0.000000
0.000000 0.750532 0.000000
0.000000 0.750490 0.000000
0.000000 0.750617 0.000000
0.000000 0.751838 0.000000
0.000000 0.751838 0.000000
0.000000 0.751838 0.000000
0.000000 0.752401 0.000000
0.031158 0.755423 0.000000
0.147426 0.754412 0.000000
0.221147 0.753186 0.000000
0.281101 0.753527 0.000000
0.333961 0.752344 0.000000
0.381250 0.749510 0.000000
0.426716 0.747059 0.000000
0.467402 0.743995 0.000000
0.509804 0.738113 0.000000
0.547078 0.731024 0.000000
0.580760 0.725467 0.000000
0.611642 0.716299 0.000000
0.641054 0.707108 0.000000
0.668601 0.700394 0.000000
0.696446 0.691789 0.000000
0.723407 0.684069 0.000000
0.752022 0.678983 0.000000
0.784681 0.677034 0.000000
0.820971 0.676846 0.000000
0.859103 0.675980 0.000000
0.893827 0.672917 0.000000
0.928550 0.669485 0.000000
0.961765 0.665479 0.000000
0.996201 0.664135 0.000000
1.000000 0.659069 0.000000
0.000000 0.787745 0.000000
0.000000 0.785417 0.000000
0.000000 0.785294 0.000000
0.000000 0.785662 0.000000
0.000000 0.789216 0.000000
0.000000 0.787554 0.000000
0.000000 0.787025 0.000000
0.000000 0.789216 0.000000
0.000000 0.790135 0.000000
0.129902 0.789216 0.000000
0.211275 0.790441 0.000000
0.273460 0.789216 0.000000
0.326195 0.788664 0.000000
0.376356 0.786520 0.000000
0.422258 0.784314 0.000000
0.466176 0.782598 0.000000
0.509191 0.776716 0.000000
0.547021 0.770833 0.000000
0.583869 0.765196 0.000000
0.615939 0.758701 0.000000
0.648775 0.750521 0.000000
0.677206 0.742839 0.000000
0.706863 0.734314 0.000000
0.733065 0.726593 0.000000
0.757782 0.716544 0.000000
0.787745 0.711742 0.000000
0.822044 0.710279 0.000000
0.857774 0.707897 0.000000
0.892310 0.706526 0.000000
0.926961 0.704052 0.000000
0.959237 0.700169 0.000000
0.996201 0.698935 0.000000
1.000000 0.693627 0.000000
0.000000 0.821201 0.000000
0.000000 0.820133 0.000000
0.000000 0.820098 0.000000
0.000000 0.820466 0.000000
0.000000 0.823055 0.000000
0.000000 0.821201 0.000000
0.000000 0.820305 0.000000
0.000000 0.823158 0.000000
0.000000 0.823744 0.000000
0.111757 0.822917 0.000000
0.200391 0.824020 0.000000
0.265820 0.823051 0.000000
0.320190 0.822273 0.000000
0.370385 0.820546 0.000000
0.418390 0.818995 0.000000
0.462377 0.817279 0.000000
0.507292 0.814767 0.000000
0.548284 0.809436 0.000000
0.586634 0.803799 0.000000
0.620385 0.796527 0.000000
0.652941 0.789047 0.000000
0.683824 0.781361 0.000000
0.711543 0.772917 0.000000
0.738848 0.765196 0.000000
0.765533 0.755086 0.000000
0.792528 0.746691 0.000000
0.822021 0.744531 0.000000
0.857793 0.741494 0.000000
0.892157 0.738710 0.000000
0.924406 0.737481 0.000000
0.959053 0.734858 0.000000
0.992402 0.733735 0.000000
1.000000 0.728186 0.000000
0.000000 0.850980 0.000000
0.000000 0.850980 0.000000
0.000000 0.850980 0.000000
0.000000 0.853922 0.000000
0.000000 0.853922 0.000000
0.000000 0.850980 0.000000
0.000000 0.850980 0.000000
0.000000 0.851624 0.000000
0.000000 0.854167 0.000000
0.089430 0.853922 0.000000
0.189706 0.853002 0.000000
0.256832 0.852911 0.000000
0.313848 0.852819 0.000000
0.364338 0.850582 0.000000
0.412255 0.850980 0.000000
0.457598 0.850000 0.000000
0.502451 0.848039 0.000000
0.544945 0.842157 0.000000
0.581801 0.836949 0.000000
0.617157 0.832721 0.000000
0.652328 0.825980 0.000000
0.683824 0.818597 0.000000
0.714706 0.810539 0.000000
0.743781 0.802819 0.000000
0.770098 0.792892 0.000000
0.796354 0.784436 0.000000
0.825919 0.779105 0.000000
0.858793 0.773376 0.000000
0.889216 0.769485 0.000000
0.923131 0.768627 0.000000
0.957843 0.765686 0.000000
0.991452 0.764706 0.000000
1.000000 0.761765 0.000000
0.000000 0.881005 0.000000
0.000000 0.878772 0.000000
0.000000 0.881059 0.000000
0.000000 0.877941 0.000000
0.000000 0.881863 0.000000
0.000000 0.880526 0.000000
0.000000 0.881702 0.000000
0.000000 0.881863 0.000000
0.000000 0.882629 0.000000
0.073775 0.883824 0.000000
0.181150 0.883969 0.000000
0.250050 0.881863 0.000000
0.307031 0.881863 0.000000
0.357475 0.881863 0.000000
0.405392 0.881863 0.000000
0.450858 0.879569 0.000000
0.496078 0.874877 0.000000
0.540039 0.874020 0.000000
0.577206 0.870098 0.000000
0.615460 0.864583 0.000000
0.650490 0.859191 0.000000
0.684681 0.853922 0.000000
0.715564 0.846201 0.000000
0.745830 0.840682 0.000000
0.775705 0.833058 0.000000
0.801038 0.823039 0.000000
0.830392 0.815893 0.000000
0.861998 0.807598 0.000000
0.892157 0.804182 0.000000
0.923120 0.803144 0.000000
0.957039 0.799510 0.000000
0.988603 0.796515 0.000000
1.000000 0.796446 0.000000
0.000000 0.908088 0.000000
0.000000 0.908701 0.000000
0.000000 0.908134 0.000000
0.000000 0.908088 0.000000
0.000000 0.908824 0.000000
0.000000 0.908088 0.000000
0.000000 0.908686 0.000000
0.000000 0.908824 0.000000
0.000000 0.909620 0.000000
0.064300 0.911803 0.000000
0.174249 0.911014 0.000000
0.244118 0.910915 0.000000
0.303156 0.912010 0.000000
0.353255 0.908824 0.000000
0.401471 0.908824 0.000000
0.447059 0.910172 0.000000
0.492157 0.905270 0.000000
0.536175 0.904902 0.000000
0.576471 0.900980 0.000000
0.613779 0.898951 0.000000
0.650490 0.893597 0.000000
0.684076 0.888603 0.000000
0.717892 0.880882 0.000000
0.748085 0.875452 0.000000
0.779412 0.868627 0.000000
0.807230 0.858992 0.000000
