Assets/Assets/Import/Lut/GIXS.cube
#Generated with IWLTBAP LUT Generator 2.1.9571.30596
#Website: https://luts.iwltbap.com
TITLE "GIXS"
LUT_3D_SIZE 5
0.000000 0.000000 0.000000
0.203922 0.003922 0.000000
0.450980 0.001961 0.000000
0.729412 0.000000 0.000000
1.000000 0.000000 0.000000
0.000000 0.234314 0.000000
0.205882 0.233333 0.000000
0.459804 0.233824 0.000000
0.737500 0.235294 0.000000
1.000000 0.204902 0.000000
0.000000 0.556863 0.000000
0.163235 0.556373 0.000000
0.483333 0.521569 0.000000
0.753431 0.505392 0.000000
1.000000 0.488235 0.000000
0.000000 0.850980 0.000000
0.000000 0.854167 0.000000
0.502451 0.848039 0.000000
0.770098 0.792892 0.000000
1.000000 0.761765 0.000000
0.000000 1.000000 0.000000
0.035294 1.000000 0.000000
0.470588 1.000000 0.000000
0.772549 1.000000 0.000000
1.000000 1.000000 0.000000
0.004902 0.000000 0.200980
0.212010 0.000980 0.204902
0.464706 0.000000 0.210294
0.742157 0.000000 0.203922
1.000000 0.000000 0.175490
0.000000 0.229412 0.203431
0.207475 0.233456 0.203615
0.471078 0.227083 0.190319
0.749265 0.219056 0.174265
1.000000 0.188971 0.141176
0.000000 0.541667 0.128431
0.048039 0.550000 0.094608
0.487500 0.523529 0.162500
0.767034 0.494485 0.000000
1.000000 0.461275 0.000000
0.000000 0.843137 0.000000
0.000000 0.847733 0.000000
0.491912 0.847549 0.000000
0.770650 0.792708 0.088971
1.000000 0.758578 0.000000
0.000000 1.000000 0.161765
0.081127 1.000000 0.167892
0.474510 1.000000 0.167157
0.773529 1.000000 0.125735
1.000000 1.000000 0.002941
0.000000 0.000000 0.449020
0.209804 0.000000 0.454902
0.475490 0.000000 0.468627
0.751961 0.000000 0.472549
1.000000 0.000000 0.460784
0.000000 0.224020 0.459314
0.186397 0.222059 0.463358
0.478676 0.225735 0.473775
0.754167 0.225245 0.470833
1.000000 0.210294 0.462255
0.000000 0.507843 0.471569
0.099510 0.507598 0.469363
0.475000 0.511275 0.466176
0.763971 0.488235 0.444853
1.000000 0.471569 0.434314
0.000000 0.810784 0.463235
0.000000 0.816667 0.462745
0.459069 0.833333 0.456373
0.769363 0.789338 0.451961
1.000000 0.741176 0.322549
0.000000 1.000000 0.492157
0.185784 1.000000 0.498039
0.498039 1.000000 0.505882
0.778922 1.000000 0.495588
1.000000 1.000000 0.435294
0.000000 0.000000 0.741176
0.164706 0.000000 0.745098
0.470098 0.000000 0.749510
0.752941 0.000000 0.753676
1.000000 0.000000 0.742157
0.000000 0.215686 0.745343
0.114951 0.211029 0.748468
0.462377 0.202574 0.752574
0.754718 0.194914 0.755208
1.000000 0.185539 0.741422
0.000000 0.494118 0.753431
0.000000 0.491299 0.752941
0.446324 0.489951 0.755147
0.758946 0.490196 0.756495
1.000000 0.498039 0.742157
0.000000 0.779412 0.755147
0.000000 0.779657 0.753186
0.436397 0.776593 0.753431
0.750306 0.771630 0.748836
1.000000 0.749265 0.729657
0.000000 1.000000 0.745098
0.109314 1.000000 0.749020
0.504902 1.000000 0.762255
0.797794 1.000000 0.789951
1.000000 1.000000 0.738235
0.000000 0.000000 1.000000
0.032353 0.000000 1.000000
0.445098 0.000000 1.000000
0.734314 0.000000 1.000000
1.000000 0.000000 1.000000
0.000000 0.195098 1.000000
0.000000 0.190441 1.000000
0.434804 0.170098 1.000000
0.730637 0.137500 1.000000
1.000000 0.104902 1.000000
0.000000 0.470588 1.000000
0.000000 0.470588 1.000000
0.415686 0.468627 1.000000
0.726471 0.462745 1.000000
1.000000 0.458824 1.000000
0.000000 0.749020 1.000000
0.000000 0.749020 1.000000
0.403431 0.749020 1.000000
0.723284 0.746078 1.000000
1.000000 0.750000 1.000000
0.000000 1.000000 0.996078
0.000000 1.000000 0.997059
0.429412 1.000000 0.996078
0.770588 1.000000 0.996078
1.000000 1.000000 1.000000
