Assets/Assets/Import/Lut/GIXS.cube
#Generated with IWLTBAP LUT Generator 2.1.9571.30596
#Website: https://luts.iwltbap.com
TITLE "GIXS"
LUT_3D_SIZE 9
0.000000 0.000000 0.000000
0.096078 0.000000 0.000000
0.203922 0.003922 0.000000
0.321078 0.007843 0.000000
0.450980 0.001961 0.000000
0.587745 0.000000 0.000000
0.729412 0.000000 0.000000
0.873039 0.000000 0.000000
1.000000 0.000000 0.000000
0.000000 0.104902 0.000000
0.093137 0.104902 0.000000
0.204902 0.108333 0.000000
0.324020 0.110478 0.000000
0.453431 0.108088 0.000000
0.590686 0.106373 0.000000
0.733456 0.094730 0.000000
0.877451 0.067096 0.000000
1.000000 0.010294 0.000000
0.000000 0.234314 0.000000
0.070098 0.237255 0.000000
0.205882 0.233333 0.000000
0.328064 0.235907 0.000000
0.459804 0.233824 0.000000
0.598039 0.235294 0.000000
0.737500 0.235294 0.000000
0.882353 0.225980 0.000000
1.000000 0.204902 0.000000
0.000000 0.385294 0.000000
0.000000 0.384804 0.000000
0.204412 0.388725 0.000000
0.335294 0.373039 0.000000
0.463480 0.369853 0.000000
0.606434 0.366667 0.000000
0.746569 0.366054 0.000000
0.886275 0.359007 0.000000
1.000000 0.350980 0.000000
0.000000 0.556863 0.000000
0.000000 0.552941 0.000000
0.163235 0.556373 0.000000
0.354167 0.548529 0.000000
0.483333 0.521569 0.000000
0.611275 0.510539 0.000000
0.753431 0.505392 0.000000
0.898039 0.495833 0.000000
1.000000 0.488235 0.000000
0.000000 0.718627 0.000000
0.000000 0.714890 0.000000
0.060294 0.717157 0.000000
0.341728 0.716238 0.000000
0.509069 0.699510 0.000000
0.635784 0.667157 0.000000
0.752083 0.647549 0.000000
0.896385 0.638725 0.000000
1.000000 0.625490 0.000000
0.000000 0.850980 0.000000
0.000000 0.853922 0.000000
0.000000 0.854167 0.000000
0.313848 0.852819 0.000000
0.502451 0.848039 0.000000
0.652328 0.825980 0.000000
0.770098 0.792892 0.000000
0.889216 0.769485 0.000000
1.000000 0.761765 0.000000
0.000000 0.962255 0.000000
0.000000 0.961826 0.000000
0.000000 0.963113 0.000000
0.295098 0.965686 0.000000
0.480147 0.962255 0.000000
0.640012 0.954718 0.000000
0.779044 0.937868 0.000000
0.903431 0.911703 0.000000
1.000000 0.896078 0.000000
0.000000 1.000000 0.000000
0.000000 1.000000 0.000000
0.035294 1.000000 0.000000
0.302451 1.000000 0.000000
0.470588 1.000000 0.000000
0.626961 1.000000 0.000000
0.772549 1.000000 0.000000
0.915686 1.000000 0.000000
1.000000 1.000000 0.000000
0.003431 0.000000 0.096569
0.097426 0.000000 0.093076
0.208824 0.004044 0.092279
0.327267 0.004228 0.092157
0.456863 0.000000 0.082108
0.599510 0.000000 0.067647
0.738235 0.000000 0.034804
0.880882 0.000000 0.000000
1.000000 0.000000 0.000000
0.000000 0.104902 0.089706
0.092325 0.107529 0.092272
0.208349 0.107736 0.085662
0.330308 0.104680 0.076961
0.461060 0.100705 0.064277
0.599977 0.094769 0.042846
0.742096 0.078600 0.009865
0.884812 0.042655 0.000000
1.000000 0.000000 0.000000
0.000000 0.234314 0.065809
0.040518 0.236382 0.052267
0.207996 0.235447 0.072825
0.336091 0.230729 0.019853
0.470833 0.223775 0.000000
0.607353 0.223529 0.000000
0.745741 0.220006 0.000000
0.888833 0.211703 0.000000
1.000000 0.195588 0.000000
0.000000 0.382659 0.000000
0.000000 0.384046 0.000000
0.191575 0.387960 0.000000
0.339216 0.375314 0.021500
0.470588 0.369210 0.000000
0.613664 0.362263 0.000000
0.754488 0.354733 0.000000
0.896898 0.346898 0.000000
1.000000 0.335294 0.000000
0.000000 0.552941 0.000000
0.000000 0.549234 0.000000
0.137316 0.556189 0.000000
0.350827 0.551471 0.000000
0.486275 0.523529 0.000000
0.614461 0.511612 0.000000
0.758885 0.503676 0.000000
0.900000 0.488419 0.000000
1.000000 0.476716 0.000000
0.000000 0.714216 0.000000
0.000000 0.712316 0.000000
0.014062 0.714400 0.000000
0.331510 0.714231 0.000000
0.507690 0.700490 0.000000
0.636267 0.668444 0.000000
0.753784 0.645466 0.000000
0.898422 0.636949 0.000000
1.000000 0.621569 0.000000
0.000000 0.849632 0.000000
0.000000 0.849632 0.000000
0.000000 0.850184 0.000000
0.306036 0.852466 0.000000
0.498468 0.846017 0.000000
0.652282 0.825980 0.000000
0.771569 0.795650 0.000000
0.891406 0.769179 0.000000
1.000000 0.761765 0.000000
0.000000 0.958762 0.000000
0.000000 0.961389 0.000000
0.000000 0.962408 0.000000
0.292502 0.963542 0.000000
0.480116 0.962439 0.000000
0.638457 0.954412 0.000000
0.778722 0.938189 0.000000
0.900490 0.911389 0.000000
1.000000 0.895159 0.000000
0.000000 1.000000 0.000000
0.000000 1.000000 0.000000
0.046691 1.000000 0.000000
0.304596 1.000000 0.000000
0.470588 1.000000 0.000000
0.624632 1.000000 0.000000
0.770098 1.000000 0.000000
0.915686 1.000000 0.000000
1.000000 1.000000 0.000000
0.004902 0.000000 0.200980
0.097549 0.000000 0.200980
0.212010 0.000980 0.204902
0.332353 0.000000 0.208824
0.464706 0.000000 0.210294
0.603431 0.000000 0.208946
0.742157 0.000000 0.203922
0.884436 0.000000 0.194730
1.000000 0.000000 0.175490
0.000000 0.101103 0.201593
0.088833 0.100934 0.204427
0.212531 0.106618 0.206955
0.334498 0.107537 0.208333
0.463725 0.108824 0.207966
0.605392 0.106250 0.207843
0.745221 0.085509 0.199877
0.885386 0.039078 0.187730
1.000000 0.000000 0.169485
0.000000 0.229412 0.203431
0.054259 0.230882 0.204259
0.207475 0.233456 0.203615
0.339216 0.227911 0.193137
0.471078 0.227083 0.190319
0.610172 0.225888 0.184038
0.749265 0.219056 0.174265
0.890074 0.208333 0.161550
1.000000 0.188971 0.141176
0.000000 0.370221 0.185662
0.000000 0.373897 0.176394
0.153768 0.384804 0.160141
0.339216 0.373637 0.186933
0.482843 0.362684 0.142647
0.625659 0.346369 0.080101
0.762408 0.340564 0.067892
0.897917 0.333379 0.058456
1.000000 0.323529 0.039338
0.000000 0.541667 0.128431
0.000000 0.539706 0.115564
0.048039 0.550000 0.094608
0.335294 0.550245 0.105944
0.487500 0.523529 0.162500
0.621630 0.510110 0.142525
0.767034 0.494485 0.000000
0.909314 0.477941 0.000000
1.000000 0.461275 0.000000
0.000000 0.704902 0.031618
0.000000 0.702543 0.013603
0.000000 0.708946 0.000000
0.309314 0.712822 0.000000
0.502757 0.701777 0.050368
0.635784 0.666927 0.129289
0.759498 0.647396 0.128646
0.904151 0.634314 0.000000
1.000000 0.612255 0.000000
0.000000 0.843137 0.000000
0.000000 0.846078 0.000000
0.000000 0.847733 0.000000
0.287408 0.848805 0.000000
0.491912 0.847549 0.000000
0.651777 0.826409 0.030790
0.770650 0.792708 0.088971
0.892371 0.769485 0.087040
1.000000 0.758578 0.000000
0.000000 0.957966 0.042647
0.000000 0.958012 0.040763
0.000000 0.959620 0.035937
0.289445 0.962040 0.031985
0.476716 0.960784 0.027574
0.639890 0.954642 0.040671
0.779044 0.940165 0.056219
0.903447 0.911596 0.049954
1.000000 0.895098 0.020221
0.000000 1.000000 0.161765
0.000000 1.000000 0.165686
0.081127 1.000000 0.167892
0.313235 1.000000 0.168995
0.474510 1.000000 0.167157
0.628799 1.000000 0.158701
0.773529 1.000000 0.125735
0.915686 1.000000 0.059436
1.000000 1.000000 0.002941
0.000000 0.000000 0.319608
0.092157 0.000000 0.319608
0.212745 0.000000 0.323529
0.337745 0.000000 0.329902
0.470588 0.000000 0.335294
0.611275 0.000000 0.338297
0.746078 0.000000 0.335294
0.886091 0.000000 0.331373
1.000000 0.000000 0.323529
0.000000 0.096569 0.321078
0.072932 0.094684 0.322626
0.211581 0.092295 0.327619
0.339223 0.096454 0.331572
0.472396 0.095925 0.335692
0.610662 0.089032 0.335486
0.749280 0.072963 0.334972
0.887400 0.050797 0.330515
1.000000 0.000000 0.326164
0.000000 0.228431 0.326103
0.012010 0.225230 0.324740
0.199081 0.226256 0.329810
0.340196 0.230224 0.333655
0.474265 0.237500 0.334007
0.612806 0.238833 0.335294
0.747733 0.236489 0.331924
0.888419 0.229059 0.329902
1.000000 0.207843 0.319118
0.000000 0.365135 0.330392
0.000000 0.364200 0.329710
0.176578 0.366667 0.329657
0.334490 0.368712 0.327543
0.480852 0.357506 0.312806
0.620037 0.355798 0.311765
0.758563 0.352313 0.307230
0.896078 0.343941 0.299885
1.000000 0.330821 0.289154
0.000000 0.518382 0.323284
0.000000 0.516912 0.317494
0.008272 0.527574 0.310049
0.297059 0.542188 0.292678
0.486642 0.520588 0.315564
0.633303 0.503462 0.273989
0.778431 0.475184 0.211213
0.914369 0.459314 0.200000
1.000000 0.449020 0.200000
0.000000 0.688235 0.296569
0.000000 0.686956 0.290081
0.000000 0.694776 0.281020
0.264851 0.703922 0.269286
0.491912 0.701501 0.278156
0.636474 0.665625 0.301900
0.764078 0.644960 0.284544
0.913044 0.622358 0.173598
1.000000 0.593137 0.027267
0.000000 0.832475 0.284926
0.000000 0.834544 0.282889
0.000000 0.838787 0.278585
0.257782 0.843306 0.271998
0.478554 0.843505 0.269485
0.649050 0.827681 0.284314
0.772733 0.792616 0.290165
0.895895 0.770037 0.278508
1.000000 0.753922 0.164583
0.000000 0.952267 0.305208
0.000000 0.953876 0.306778
0.000000 0.955377 0.306633
0.288159 0.958150 0.306189
0.476930 0.958977 0.304075
0.639017 0.954412 0.304282
0.778937 0.938235 0.300123
0.903653 0.911313 0.282989
1.000000 0.894301 0.265380
0.000000 1.000000 0.341667
0.000000 1.000000 0.345282
0.136887 1.000000 0.347426
0.328983 1.000000 0.348591
0.485539 1.000000 0.349510
0.631801 1.000000 0.345037
0.774632 1.000000 0.328922
0.915686 1.000000 0.296385
1.000000 1.000000 0.265686
0.000000 0.000000 0.449020
0.067892 0.000000 0.449020
0.209804 0.000000 0.454902
0.339216 0.000000 0.462010
0.475490 0.000000 0.468627
0.615196 0.000000 0.475245
0.751961 0.000000 0.472549
0.888725 0.000000 0.468627
1.000000 0.000000 0.460784
0.000000 0.088971 0.452696
0.036949 0.087806 0.453646
0.203860 0.082537 0.458824
0.338174 0.080576 0.463756
0.475735 0.081618 0.470833
0.618382 0.067555 0.476317
0.753493 0.039522 0.472365
0.891115 0.013297 0.469087
1.000000 0.000000 0.461275
0.000000 0.224020 0.459314
0.000000 0.222243 0.459314
0.186397 0.222059 0.463358
0.334314 0.223346 0.468382
0.478676 0.225735 0.473775
0.621262 0.227880 0.474510
0.754167 0.225245 0.470833
0.891544 0.223284 0.467586
1.000000 0.210294 0.462255
0.000000 0.360294 0.465686
0.000000 0.359406 0.464706
0.153799 0.360662 0.467402
0.323254 0.360784 0.470098
0.480760 0.362745 0.474877
0.620159 0.368168 0.471140
0.753493 0.370833 0.469730
0.888419 0.368566 0.468566
1.000000 0.361520 0.464706
0.000000 0.507843 0.471569
0.000000 0.504902 0.468505
0.099510 0.507598 0.469363
0.308701 0.508946 0.469363
0.475000 0.511275 0.466176
0.629779 0.493137 0.446078
0.763971 0.488235 0.444853
0.900980 0.483088 0.442034
1.000000 0.471569 0.434314
0.000000 0.658088 0.467647
0.000000 0.655637 0.463879
0.000000 0.662561 0.463358
0.246569 0.673009 0.459773
0.458578 0.688603 0.449755
0.631373 0.660049 0.458854
0.775061 0.635478 0.411275
0.927451 0.598529 0.336826
1.000000 0.577206 0.326225
0.000000 0.810784 0.463235
0.000000 0.812745 0.462806
0.000000 0.816667 0.462745
0.230637 0.824265 0.459620
0.459069 0.833333 0.456373
0.642953 0.826961 0.457904
0.769363 0.789338 0.451961
0.900368 0.768689 0.424877
1.000000 0.741176 0.322549
0.000000 0.942647 0.474510
0.000000 0.942678 0.474724
0.000000 0.944547 0.477512
0.290870 0.948805 0.479994
0.476593 0.951716 0.481618
0.640257 0.953339 0.482169
0.781679 0.939951 0.474449
0.903707 0.911489 0.450521
1.000000 0.892402 0.429412
0.000000 1.000000 0.492157
0.000000 1.000000 0.494363
0.185784 1.000000 0.498039
0.352206 1.000000 0.501961
0.498039 1.000000 0.505882
0.641912 1.000000 0.507843
0.778922 1.000000 0.495588
0.917647 1.000000 0.464216
1.000000 1.000000 0.435294
0.000000 0.000000 0.595588
0.000000 0.000000 0.595588
0.194240 0.000000 0.599510
0.336826 0.000000 0.605882
0.474510 0.000000 0.610539
0.616115 0.000000 0.615196
0.753922 0.000000 0.613725
0.896262 0.000000 0.609988
1.000000 0.000000 0.603431
0.000000 0.078615 0.596875
0.000000 0.073782 0.597495
0.183640 0.067509 0.601517
0.330990 0.057108 0.606970
0.474755 0.047212 0.611428
0.617111 0.037079 0.614714
0.757537 0.003217 0.615502
0.894401 0.000000 0.611252
1.000000 0.000000 0.603431
0.000000 0.220588 0.602451
0.000000 0.218275 0.603079
0.159865 0.215931 0.607230
0.324188 0.214997 0.610968
0.474510 0.215012 0.615012
0.621339 0.214706 0.618474
0.760110 0.209743 0.615533
0.896446 0.209804 0.610907
1.000000 0.201471 0.604779
0.000000 0.356373 0.609375
0.000000 0.354902 0.608946
0.109145 0.354902 0.611275
0.309720 0.354695 0.615196
0.470037 0.353431 0.618566
0.623039 0.354121 0.619462
0.762255 0.357904 0.616069
0.893627 0.361275 0.607835
1.000000 0.358824 0.605515
0.000000 0.502696 0.616422
0.000000 0.501961 0.614461
0.013419 0.501409 0.616973
0.288940 0.500460 0.617616
0.462990 0.500858 0.618382
0.624265 0.501685 0.620343
0.755392 0.506556 0.613971
0.888879 0.508670 0.613327
1.000000 0.505147 0.610539
0.000000 0.650919 0.619547
0.000000 0.649640 0.617463
0.000000 0.651333 0.618627
0.272488 0.650896 0.619179
0.456618 0.649786 0.617371
0.617877 0.647488 0.613151
0.763373 0.628385 0.592969
0.899081 0.622549 0.590633
1.000000 0.613725 0.586826
0.000000 0.782843 0.609191
0.000000 0.783946 0.610294
0.000000 0.786520 0.611213
0.244807 0.788434 0.611964
0.440564 0.799387 0.616299
0.621706 0.817555 0.618015
0.764982 0.785049 0.607353
0.910723 0.759482 0.558640
1.000000 0.720221 0.489338
0.000000 0.922243 0.616054
0.000000 0.925329 0.617448
0.000000 0.927834 0.621216
0.279297 0.931878 0.625490
0.470680 0.938082 0.632353
0.636098 0.943827 0.639905
0.782705 0.940058 0.635279
0.902328 0.909988 0.605867
1.000000 0.892157 0.579105
0.000000 1.000000 0.625490
0.000000 1.000000 0.629228
0.199510 1.000000 0.632353
0.367586 1.000000 0.639645
0.513235 1.000000 0.649020
0.653493 1.000000 0.653493
0.788235 1.000000 0.652328
0.919301 1.000000 0.622243
1.000000 1.000000 0.591667
0.000000 0.000000 0.741176
0.000000 0.000000 0.741176
0.164706 0.000000 0.745098
0.325000 0.000000 0.749020
0.470098 0.000000 0.749510
0.611275 0.000000 0.752941
0.752941 0.000000 0.753676
0.895588 0.000000 0.750245
1.000000 0.000000 0.742157
0.000000 0.060172 0.742892
0.000000 0.055653 0.742479
0.149203 0.043842 0.746048
0.317953 0.024127 0.748055
0.467279 0.003860 0.750490
0.613006 0.000000 0.753156
0.753707 0.000000 0.753615
0.896400 0.000000 0.752788
1.000000 0.000000 0.745098
0.000000 0.215686 0.745343
0.000000 0.212776 0.745833
0.114951 0.211029 0.748468
0.308211 0.206863 0.749908
0.462377 0.202574 0.752574
0.612837 0.198192 0.755760
0.754718 0.194914 0.755208
0.897702 0.189798 0.750551
1.000000 0.185539 0.741422
0.000000 0.350980 0.749387
0.000000 0.349510 0.749632
0.035937 0.349510 0.751103
0.290395 0.347381 0.752803
0.455453 0.344363 0.753431
0.610386 0.343551 0.756265
0.758517 0.343505 0.757966
0.898912 0.344654 0.749066
1.000000 0.348529 0.741176
0.000000 0.494118 0.753431
0.000000 0.491850 0.751654
0.000000 0.491299 0.752941
0.265564 0.490196 0.753676
0.446324 0.489951 0.755147
0.607353 0.490196 0.757047
0.758946 0.490196 0.756495
0.896507 0.497120 0.749939
1.000000 0.498039 0.742157
0.000000 0.638725 0.756863
0.000000 0.638817 0.756725
0.000000 0.638634 0.756863
0.246768 0.638496 0.755714
0.439645 0.636642 0.754228
0.603064 0.634666 0.753554
0.756740 0.636244 0.755208
0.888312 0.640334 0.749020
1.000000 0.639338 0.749020
0.000000 0.779412 0.755147
0.000000 0.780392 0.754197
0.000000 0.779657 0.753186
0.235478 0.779381 0.753554
0.436397 0.776593 0.753431
0.599969 0.773254 0.750460
0.750306 0.771630 0.748836
0.894056 0.754534 0.733456
1.000000 0.749265 0.729657
0.000000 0.907721 0.744975
0.000000 0.906985 0.742417
0.000000 0.906434 0.744424
0.242785 0.907981 0.747457
0.442402 0.909743 0.750735
0.615319 0.920098 0.761627
0.777512 0.932292 0.776869
0.898483 0.907031 0.749556
1.000000 0.888725 0.708333
0.000000 1.000000 0.745098
0.000000 1.000000 0.745466
0.109314 1.000000 0.749020
0.336397 1.000000 0.752941
0.504902 1.000000 0.762255
0.662255 1.000000 0.777941
0.797794 1.000000 0.789951
0.920466 1.000000 0.772549
1.000000 1.000000 0.738235
0.000000 0.000000 0.880882
0.000000 0.000000 0.880453
0.109069 0.000000 0.881740
0.304596 0.000000 0.884620
0.456618 0.000000 0.884314
0.603431 0.000000 0.888235
0.744730 0.000000 0.888235
0.891728 0.000000 0.888235
1.000000 0.000000 0.880882
0.000000 0.030453 0.880882
0.000000 0.020964 0.881150
0.089476 0.007292 0.880867
0.297549 0.000000 0.883517
0.454902 0.000000 0.885018
0.603087 0.000000 0.888235
0.746017 0.000000 0.888343
0.889147 0.000000 0.885608
1.000000 0.000000 0.884314
0.000000 0.207843 0.881740
0.000000 0.203845 0.883762
0.033180 0.201838 0.883670
0.286045 0.195236 0.885110
0.450674 0.187623 0.888235
0.601118 0.180576 0.888649
0.745588 0.172243 0.891023
0.892417 0.162883 0.888557
1.000000 0.156863 0.884314
0.000000 0.343321 0.884498
0.000000 0.343061 0.884398
0.000000 0.341682 0.884314
0.266973 0.339216 0.886091
0.440288 0.335539 0.888143
0.596017 0.330997 0.890326
0.745588 0.329335 0.892080
0.892624 0.325383 0.888703
1.000000 0.325490 0.880576
0.000000 0.484069 0.886275
0.000000 0.482353 0.884773
0.000000 0.481066 0.886458
0.240349 0.481036 0.887163
0.431127 0.479412 0.888113
0.592739 0.479504 0.889308
0.745159 0.477941 0.891238
0.894087 0.477512 0.888450
1.000000 0.481863 0.882353
0.000000 0.625490 0.888235
0.000000 0.625222 0.887944
0.000000 0.625812 0.887224
0.217096 0.625184 0.887125
0.422549 0.624020 0.887500
0.588549 0.623039 0.885608
0.741345 0.622350 0.888235
0.892157 0.621530 0.886642
1.000000 0.626777 0.879105
0.000000 0.765686 0.888235
0.000000 0.765686 0.888235
0.000000 0.766207 0.888235
0.193919 0.764890 0.885524
0.415074 0.763051 0.885723
0.586933 0.761504 0.887469
0.738113 0.760509 0.884406
0.891575 0.760846 0.887331
1.000000 0.765564 0.877819
0.000000 0.903983 0.884314
0.000000 0.903922 0.884314
0.000000 0.906173 0.883992
0.198614 0.905047 0.884314
0.419393 0.902420 0.882384
0.589032 0.901287 0.882437
0.739032 0.896446 0.880867
0.885501 0.896025 0.884260
1.000000 0.888664 0.873039
0.000000 1.000000 0.872549
0.000000 1.000000 0.872549
0.000000 1.000000 0.871569
0.263725 1.000000 0.870404
0.454167 1.000000 0.874265
0.618811 1.000000 0.879779
0.788358 1.000000 0.896078
0.934375 1.000000 0.922610
1.000000 0.999510 0.896569
0.000000 0.000000 1.000000
0.000000 0.000000 1.000000
0.032353 0.000000 1.000000
0.285294 0.000000 1.000000
0.445098 0.000000 1.000000
0.591667 0.000000 1.000000
0.734314 0.000000 1.000000
0.880882 0.000000 1.000000
1.000000 0.000000 1.000000
0.000000 0.000000 1.000000
0.000000 0.000000 1.000000
0.000735 0.000000 1.000000
0.277635 0.000000 1.000000
0.442892 0.000000 1.000000
0.591360 0.000000 1.000000
0.733333 0.000000 1.000000
0.880821 0.000000 1.000000
1.000000 0.000000 1.000000
0.000000 0.195098 1.000000
0.000000 0.192525 1.000000
0.000000 0.190441 1.000000
0.264216 0.182353 1.000000
0.434804 0.170098 1.000000
0.587377 0.156373 1.000000
0.730637 0.137500 1.000000
0.877819 0.118505 1.000000
1.000000 0.104902 1.000000
0.000000 0.333824 1.000000
0.000000 0.333824 1.000000
0.000000 0.333211 1.000000
0.243076 0.329902 1.000000
0.424265 0.322059 1.000000
0.580453 0.315686 1.000000
0.728186 0.310294 1.000000
0.876961 0.302451 1.000000
1.000000 0.300980 1.000000
0.000000 0.470588 1.000000
0.000000 0.470588 1.000000
0.000000 0.470588 1.000000
0.213725 0.469363 1.000000
0.415686 0.468627 1.000000
0.577206 0.466667 1.000000
0.726471 0.462745 1.000000
0.878676 0.462745 1.000000
1.000000 0.458824 1.000000
0.000000 0.611275 1.000000
0.000000 0.611397 1.000000
0.000000 0.611275 1.000000
0.190135 0.611275 1.000000
0.407843 0.610539 1.000000
0.573529 0.611275 1.000000
0.725858 0.610172 1.000000
0.876654 0.609498 1.000000
1.000000 0.609804 1.000000
0.000000 0.749020 1.000000
0.000000 0.749020 1.000000
0.000000 0.749020 1.000000
0.165686 0.749020 1.000000
0.403431 0.749020 1.000000
0.572672 0.746078 1.000000
0.723284 0.746078 1.000000
0.873897 0.746936 1.000000
1.000000 0.750000 1.000000
0.000000 0.888725 1.000000
0.000000 0.888725 1.000000
0.000000 0.888235 1.000000
0.151838 0.888419 1.000000
0.400245 0.886520 1.000000
0.575980 0.885600 1.000000
0.730760 0.884681 1.000000
0.876471 0.887377 0.999081
1.000000 0.896078 0.996078
0.000000 1.000000 0.996078
0.000000 1.000000 0.996569
0.000000 1.000000 0.997059
0.206373 1.000000 0.997549
0.429412 1.000000 0.996078
0.608824 1.000000 0.996078
0.770588 1.000000 0.996078
0.919118 1.000000 0.996078
1.000000 1.000000 1.000000
